build/assets/img/svg/icon-ok.svg

<svg width="60" height="60" viewBox="0 0 60 60" fill="none" xmlns="http://www.w3.org/2000/svg">
<rect width="60" height="60" rx="10" fill="#A62E41"/>
<path d="M39.2667 30C38 30 35.4667 32.5333 30.4 32.5333C25.3333 32.5333 22.8 30 21.5333 30C20.14 30 19 31.14 19 32.5333C19 33.8 19.76 34.4333 20.2667 34.6867C21.7867 35.5733 26.6 37.6 26.6 37.6L21.1533 44.44C21.1533 44.44 20.14 45.58 20.14 46.4667C20.14 47.86 21.28 49 22.6733 49C23.94 49 24.5733 48.1133 24.5733 48.1133L30.4 41.4L36.1 48.1133C36.1 48.1133 36.7333 49 38 49C39.3933 49 40.5333 47.86 40.5333 46.4667C40.5333 45.7067 39.52 44.44 39.52 44.44L34.2 37.6C34.2 37.6 39.0133 35.5733 40.5333 34.6867C41.04 34.3067 41.8 33.8 41.8 32.5333C41.8 31.14 40.66 30 39.2667 30Z" fill="white"/>
<path d="M30.3999 11C25.4599 11 21.5332 14.9267 21.5332 19.8667C21.5332 24.8067 25.4599 28.7333 30.3999 28.7333C35.3399 28.7333 39.2665 24.8067 39.2665 19.8667C39.2665 14.9267 35.3399 11 30.3999 11ZM30.3999 24.3C27.9932 24.3 25.9665 22.2733 25.9665 19.8667C25.9665 17.46 27.9932 15.4333 30.3999 15.4333C32.8065 15.4333 34.8332 17.46 34.8332 19.8667C34.8332 22.2733 32.8065 24.3 30.3999 24.3Z" fill="white"/>
</svg>

<svg width="60" height="60" fill="none" xmlns="http://www.w3.org/2000/svg"><rect width="60" height="60" rx="10" fill="#A62E41"/><path d="M39.267 30c-1.267 0-3.8 2.533-8.867 2.533-5.067 0-7.6-2.533-8.867-2.533A2.54 2.54 0 0019 32.533c0 1.267.76 1.9 1.267 2.154 1.52.886 6.333 2.913 6.333 2.913l-5.447 6.84s-1.013 1.14-1.013 2.027A2.54 2.54 0 0022.673 49c1.267 0 1.9-.887 1.9-.887L30.4 41.4l5.7 6.713S36.733 49 38 49a2.54 2.54 0 002.533-2.533c0-.76-1.013-2.027-1.013-2.027L34.2 37.6s4.813-2.027 6.333-2.913c.507-.38 1.267-.887 1.267-2.154A2.54 2.54 0 0039.267 30zM30.4 11a8.812 8.812 0 00-8.867 8.867 8.812 8.812 0 008.867 8.866 8.812 8.812 0 008.867-8.866A8.812 8.812 0 0030.4 11zm0 13.3c-2.407 0-4.433-2.027-4.433-4.433 0-2.407 2.026-4.434 4.433-4.434s4.433 2.027 4.433 4.434c0 2.406-2.026 4.433-4.433 4.433z" fill="#fff"/></svg>
